X:995
T: Bogan's
T: R\'il U\'i Bh\'og\'ain
S: B.Breathnach:"Ceol Rince na hEireann" IV/107
Z: B.Black
L: 1/8
M: 4/4
R: reel
K: D
A,|D3E (3GFE DF|AFBF ABde|faef dB (3BBB|AF (3FFF EDB,A,|
D3E (3GFE DF|AFBF ABde|faef dfBd|AFEG FD D ||
B|defg agab|afdf edBc|defg afbf|afeg fddA|
defg af (3fff|gefd edBd|gfge (3fga gf|egfe dBAF ||
